setcps(135/60/4)

d1 $ s "drum"

d2 $ s "hh cp"

d3 $ s "sd/2"

d4 $ s "[drum [hh cp hh [drum drum]]]"

d5 $ s "[[[[[[[[[hh]]]]]]]]]*60"*2

d6 $ s "[[[[[[[[[]hh]]]]]]]]"

d8 $ s "[drum:9[[[[[[[[hh]]]]]]]hh]hh[drum:2]]*2"

d8 $ s "cp [cp sd*2] cd drum:*2 drum*90"

d1 $ s "drum hh cp"

d2 $ s "drum hh cp*600"*2

d3 $ s "drum hh cp"*4

d4 $ s "[drum hh]*2 [hh [hh sd]]*6"

d1 $ s "[drum hh drum]*2 [hh:7 can:2 hh:4]*55"*2

hush
